X: 16
T:Gravel Walk, The
M:C|
L:1/8
R:Reel
K:ADor
A2eA BAeA|A2ed BAGB|A2eA Bdef|gedc BAGB|!
A2eA BAeA|A2ed BAGB|A2eA Bdef|gedc BAGB|]!
(3AAA aA gAfA|(3AAA ed BAGB|(3AAA aA gAfa|gedc BAGB|!
(3AAA aA gAfA|(3AAA ed BAGB|ABcd egfa|gedc BAGB|]!
cAAG A2AB|cA (3AAA BGBd|cAAG A2AB|gfge dBGB|!
cAAG A2AB|cA (3AAA BGBd|cAAG A2AB|gfge dBGB|!
|:c2gc acgc|c2gc BAGB|c2gc acga|gedc BAGB|!
c2gc acgc|c2gc BAGB|ABcd egfa|gedc BAGB:|]!
